N50 (Default Foam Post)
N100  G91.1
N150 F5000
N200   X9.7900  Y8.5600
N250
N300    I-2.5000  J0.0000
N350   X9.2900  Y16.1800
N400
N450    I-2.0000  J0.0000
N500   X4.1200  Y17.4500
N550
N600   X10.4600
N650
N700   X13.0000  Y14.9100
N750
N800   X4.1200
N850
N900   Y17.4500
N950
N1000   X10.4600
N1050
N1100   X13.0000  Y14.9100
N1150
N1200   X4.1200
N1250
N1300   Y17.4500
N1350   X7.2900  Y25.0700
N1400
N1450
N1500   Y22.5300
N1550
N1600   X11.1000
N1650
N1700   X14.9100  Y18.7200
N1750
N1800   Y23.8000
N1850
N1900   X13.6400  Y25.0700
N1950
N2000   X7.2900
N2050
N2100   Y22.5300
N2150
N2200   X11.1000
N2250
N2300   X14.9100  Y18.7200
N2350
N2400   Y23.8000
N2450
N2500   X13.6400  Y25.0700
N2550
N2600   X7.2900
N2650   X14.9100  Y18.7200
N2700
N2750   X9.8300  Y23.8000
N2800 G40
N2850
N2900   X6.6600
N2950   X9.2900
N3000
N3050    I-2.0000  J0.0000
N3100   X4.1200  Y25.0700
N3150
N3200   X7.2900
N3250
N3300   X7.2800  Y22.5300
N3350
N3400   X4.1200
N3450
N3500   Y25.0700
N3550
N3600   X7.2900
N3650
N3700   X7.2800  Y22.5300
N3750
N3800   X4.1200
N3850
N3900   Y25.0700
N3950   Y32.6900
N4000
N4050   X10.4600
N4100
N4150   Y30.1500
N4200
N4250   X4.1200
N4300
N4350   Y32.6900
N4400
N4450   X10.4600
N4500
N4550   Y30.1500
N4600
N4650   X4.1200
N4700
N4750   Y32.6900
N4800   X9.2900  Y31.4200
N4850
N4900    I-2.0000  J0.0000
N4950   Y39.0400
N5000
N5050    I-2.0000  J0.0000
N5100   X4.1200  Y40.3100
N5150
N5200   X8.5600
N5250
N5300   Y37.7700
N5350
N5400   X4.1200
N5450
N5500   Y40.3100
N5550
N5600   X8.5600
N5650
N5700   Y37.7700
N5750
N5800   X4.1200
N5850
N5900   Y40.3100
N5950   X9.2900  Y46.0200
N6000
N6050    I-2.0000  J0.0000
N6100   X16.8200  Y44.7600
N6150
N6200
N6250   Y53.6400
N6300
N6350   X11.7400
N6400
N6450   X11.1000  Y54.2800
N6500
N6550   X12.3700  Y53.0100
N6600
N6650   X16.8200  Y48.5600
N6700
N6750   Y44.7600
N6800
N6850   Y53.6400
N6900
N6950   X11.7400
N7000
N7050   X11.1000  Y54.2800
N7100
N7150   X12.3700  Y53.0100
N7200
N7250   X16.8200  Y48.5600
N7300
N7350   Y44.7600
N7400   X4.1200  Y55.5500
N7450
N7500   Y53.0100
N7550
N7600   X12.3700
N7650
N7700   X11.7400  Y53.6400
N7750
N7800   X9.8300  Y55.5500
N7850
N7900   X4.1200
N7950
N8000   Y53.0100
N8050
N8100   X12.3700
N8150
N8200   X11.7400  Y53.6400
N8250
N8300   X9.8300  Y55.5500
N8350
N8400   X4.1200
N8450 G40
N8500   X16.8200  Y44.7600
N8550
N8600   Y47.9300
N8650   X17.7200
N8700
N8750    I-0.9000  J0.0000
N8800   X17.6900  Y45.0000
N8850
N8900    I-0.9000  J0.0000
N8950   X19.3600  Y41.5800
N9000
N9050   Y49.2000
N9100
N9150   X21.9000  Y46.6600
N9200
N9250   Y44.1200
N9300
N9350   X19.3600  Y41.5800
N9400
N9450   Y49.2000
N9500
N9550   X21.9000  Y46.6600
N9600
N9650   Y44.1200
N9700
N9750   X19.3600  Y41.5800
N9800   X17.7200  Y40.3100
N9850
N9900    I-0.9000  J0.0000
N9950   X20.2600  Y37.1400
N10000
N10050    I-0.9000  J0.0000
N10100   X35.8600  Y29.5200
N10150
N10200
N10250   X33.9600
N10300
N10350   X29.5200  Y33.9600
N10400
N10450   Y38.4000
N10500
N10550   Y41.5800
N10600
N10650   X28.2400  Y42.8500
N10700
N10750   X24.4400
N10800
N10850   X21.9000  Y40.3100
N10900 G40
N10950
N11000   Y37.1400
N11050   X22.8000
N11100
N11150    I-0.9000  J0.0000
N11200   X25.3400
N11250
N11300    I-0.9000  J0.0000
N11350   X27.8800
N11400
N11450    I-0.9000  J0.0000
N11500   X30.4200
N11550
N11600    I-0.9000  J0.0000
N11650   X35.8600
N11700
N11750
N11800   X32.0600
N11850   X32.9600
N11900
N11950    I-0.9000  J0.0000
N12000   X47.9300  Y42.2200
N12050
N12100
N12150   X50.4700  Y39.6800
N12200
N12250   Y44.7600
N12300
N12350   X47.9300  Y42.2200
N12400
N12450   X50.4700  Y39.6800
N12500
N12550   Y44.7600
N12600
N12650   X47.9300  Y42.2200
N12700   X50.4700  Y39.6800
N12750
N12800   X49.2000  Y40.9400
N12850
N12900   X50.4700  Y42.2200
N12950   X49.2000  Y40.9400
N13000
N13050   X47.9300  Y42.2200
N13100
N13150   X39.0400
N13200
N13250   X35.8600  Y39.0400
N13300 G40
N13350
N13400   Y37.1400
N13450   X36.7600
N13500
N13550    I-0.9000  J0.0000
N13600   Y34.6000
N13650
N13700    I-0.9000  J0.0000
N13750   Y32.0600
N13800
N13850    I-0.9000  J0.0000
N13900   X35.8600  Y34.6000
N13950
N14000
N14050   X37.7700
N14100
N14150   X39.0400  Y35.8600
N14200
N14250   Y37.7700
N14300
N14350   X40.9400  Y39.6800
N14400
N14450   X44.7600
N14500
N14550   X45.3900  Y39.0400
N14600
N14650   X47.3000  Y37.1400
N14700
N14750   Y36.5000
N14800 G40
N14850   X35.8600  Y34.6000
N14900
N14950   Y32.0600
N15000   X36.7600  Y29.5200
N15050
N15100    I-0.9000  J0.0000
N15150   Y26.9800
N15200
N15250    I-0.9000  J0.0000
N15300   Y24.4400
N15350
N15400    I-0.9000  J0.0000
N15450   X47.3000  Y13.0000
N15500
N15550
N15600   Y16.1800
N15650
N15700   X44.7600  Y18.7200
N15750
N15800   X41.5800
N15850
N15900   X38.4000  Y21.9000
N15950
N16000   X35.8600
N16050 G40
N16100
N16150   Y24.4400
N16200   X36.7600  Y21.9000
N16250
N16300    I-0.9000  J0.0000
N16350   X32.9600  Y24.4400
N16400
N16450    I-0.9000  J0.0000
N16500   X30.4200
N16550
N16600    I-0.9000  J0.0000
N16650   X35.8600  Y26.9800
N16700
N16750
N16800   X30.7800
N16850
N16900   X29.5200  Y25.7000
N16950
N17000   Y24.4400
N17050   X21.9000  Y25.0700
N17100
N17150   Y23.1600
N17200
N17250   X23.1600  Y21.9000
N17300
N17350   X25.7000
N17400
N17450   X28.8800
N17500
N17550   X29.5200  Y22.5300
N17600 G40
N17650
N17700   Y24.4400
N17750   X27.8800
N17800
N17850    I-0.9000  J0.0000
N17900   X26.9800
N17950
N18000   X25.7000
N18050
N18100   X24.4400
N18150
N18200   Y25.7000
N18250
N18300   Y30.7800
N18350
N18400   X26.9800
N18450
N18500   Y24.4400
N18550
N18600   X25.7000
N18650
N18700   X24.4400
N18750
N18800   Y25.7000
N18850
N18900   Y30.7800
N18950
N19000   X26.9800
N19050
N19100   Y24.4400
N19150   X25.3400
N19200
N19250    I-0.9000  J0.0000
N19300   X26.9800
N19350
N19400
N19450   X26.3400  Y25.0700
N19500 G40
N19550
N19600   X24.4400
N19650   X22.8000  Y24.4400
N19700
N19750    I-0.9000  J0.0000
N19800   X20.2600
N19850
N19900    I-0.9000  J0.0000
N19950   X19.3600  Y26.3400
N20000
N20050   Y35.8600
N20100
N20150   X21.9000  Y33.3200
N20200
N20250   Y28.8800
N20300
N20350   X19.3600  Y26.3400
N20400
N20450   Y35.8600
N20500
N20550   X21.9000  Y33.3200
N20600
N20650   Y28.8800
N20700
N20750   X19.3600  Y26.3400
N20800   X17.7200  Y27.6100
N20850
N20900    I-0.9000  J0.0000
N20950   X16.8200
N21000
N21050   X14.2800  Y30.1500
N21100
N21150   Y35.2300
N21200
N21250   X11.7400  Y37.7700
N21300
N21350   X7.9200
N21400
N21450   Y40.3100
N21500
N21550   X11.7400
N21600
N21650   X14.2800  Y37.7700
N21700
N21750   Y32.0600
N21800
N21850   X15.5400  Y30.7800
N21900
N21950   X16.8200
N22000
N22050   Y27.6100
N22100
N22150   X14.2800  Y30.1500
N22200
N22250   Y35.2300
N22300
N22350   X11.7400  Y37.7700
N22400
N22450   X7.9200
N22500
N22550   Y40.3100
N22600
N22650   X11.7400
N22700
N22750   X14.2800  Y37.7700
N22800
N22850   Y32.0600
N22900
N22950   X15.5400  Y30.7800
N23000
N23050   X16.8200
N23100
N23150   Y27.6100
N23200   X17.7200  Y30.1500
N23250
N23300    I-0.9000  J0.0000
N23350   X16.8200  Y40.3100
N23400
N23450
N23500   X9.8300  Y47.3000
N23550
N23600   X4.1200
N23650
N23700   Y44.7600
N23750
N23800   X12.3700
N23850
N23900   X16.8200  Y40.3100
N23950
N24000   X9.8300  Y47.3000
N24050
N24100   X4.1200
N24150
N24200   Y44.7600
N24250
N24300   X12.3700
N24350
N24400   X16.8200  Y40.3100
N24450 G40
N24500
N24550   Y33.3200
N24600   X17.6900  Y33.5700
N24650
N24700    I-0.9000  J0.0000
N24750   X22.7100
N24800
N24850    I-0.9000  J0.0000
N24900   X22.7400  Y30.1500
N24950
N25000    I-0.9000  J0.0000
N25050   X27.8800  Y27.6100
N25100
N25150    I-0.9000  J0.0000
N25200   X25.9700  Y18.6900
N25250
N25300    I-0.9000  J0.0000
N25350   X30.1500  Y18.7200
N25400
N25450   X32.0600  Y20.6200
N25500
N25550   Y24.4400
N25600
N25650   Y20.6200
N25700
N25750   X33.9600  Y18.7200
N25800
N25850   X30.1500
N25900
N25950   X32.0600  Y20.6200
N26000
N26050   Y24.4400
N26100
N26150   Y20.6200
N26200
N26250   X33.9600  Y18.7200
N26300
N26350   X30.1500
N26400   X60.0000  Y10.4600
N26450
N26500
N26550   X56.1800
N26600
N26650   X54.2800  Y12.3700
N26700
N26750   Y28.2400
N26800   Y12.3700
N26850
N26900   Y9.2000
N26950
N27000   X53.0100  Y7.9200
N27050
N27100   X29.5200
N27150 G40
N27200
N27250   X21.9000  Y15.5400
N27300   X15.8100  Y18.6900
N27350
N27400    I-0.9000  J0.0000
N27450   X21.9000  Y4.0000
N27500
N27550    I-4.0000  J0.0000
N27600   X48.2000  Y13.0000
N27650
N27700    I-0.9000  J0.0000
N27750   X48.1900  Y15.5400
N27800
N27850    I-0.9000  J0.0000
N27900   X51.3700  Y18.0800
N27950
N28000    I-0.9000  J0.0000
N28050   X54.2800  Y20.6200
N28100
N28150   Y32.0500
N28200
N28250   X55.5500  Y30.7800
N28300
N28350   X58.7200
N28400
N28450   X59.3600  Y31.4200
N28500
N28550   Y23.1600
N28600
N28650   X58.0900  Y21.9000
N28700
N28750   X55.5500
N28800
N28850   X54.2800  Y20.6200
N28900
N28950   Y32.0500
N29000
N29050   X55.5500  Y30.7800
N29100
N29150   X58.7200
N29200
N29250   X59.3600  Y31.4200
N29300
N29350   Y23.1600
N29400
N29450   X58.0900  Y21.9000
N29500
N29550   X55.5500
N29600
N29650   X54.2800  Y20.6200
N29700   X55.1800  Y21.9000
N29750
N29800    I-0.9000  J0.0000
N29850   X60.0000  Y18.0800
N29900
N29950
N30000   X57.4600
N30050   X58.3600
N30100
N30150    I-0.9000  J0.0000
N30200   X60.9000
N30250
N30300    I-0.9000  J0.0000
N30350   Y15.5400
N30400
N30450    I-0.9000  J0.0000
N30500   X58.3600
N30550
N30600    I-0.9000  J0.0000
N30650   X60.0000  Y13.0000
N30700
N30750
N30800   X57.4600
N30850 G40
N30900
N30950   Y15.5400
N31000   X58.7200  Y13.0000
N31050
N31100
N31150   X57.4600  Y14.2800
N31200   X58.3600  Y13.0000
N31250
N31300    I-0.9000  J0.0000
N31350   X60.9000
N31400
N31450    I-0.9000  J0.0000
N31500   Y10.4600
N31550
N31600    I-0.9000  J0.0000
N31650   X88.5700  Y14.9100
N31700
N31750
N31800   X95.5600  Y1.5800
N31850
N31900   X67.6200
N31950
N32000   X63.8000  Y5.3800
N32050
N32100   Y7.9200
N32150
N32200   X65.0800  Y6.6600
N32250
N32300   X68.8800
N32350
N32400   X70.7900  Y8.5600
N32450
N32500   Y12.3700
N32550
N32600   X70.1600  Y13.0000
N32650
N32700   X71.4200  Y11.7400
N32750
N32800   X78.4100
N32850
N32900   X80.3200  Y13.6400
N32950
N33000   X86.6600
N33050
N33100   X87.9400  Y14.9100
N33150
N33200   X88.5700
N33250
N33300   X95.5600  Y1.5800
N33350
N33400   X67.6200
N33450
N33500   X63.8000  Y5.3800
N33550
N33600   Y7.9200
N33650
N33700   X65.0800  Y6.6600
N33750
N33800   X68.8800
N33850
N33900   X70.7900  Y8.5600
N33950
N34000   Y12.3700
N34050
N34100   X70.1600  Y13.0000
N34150
N34200   X67.6200
N34250
N34300   X70.1600
N34350
N34400   X71.4200  Y11.7400
N34450
N34500   X78.4100
N34550
N34600   X80.3200  Y13.6400
N34650
N34700   X86.6600
N34750
N34800   X87.9400  Y14.9100
N34850
N34900   X88.5700
N34950   X98.7300  Y21.8900
N35000
N35050   Y1.5800
N35100
N35150   X77.1400
N35200
N35250   X82.8600  Y7.2900
N35300
N35350   X87.9400  Y11.7400
N35400
N35450   Y14.9100
N35500
N35550   X91.7400  Y18.7200
N35600
N35650   X95.5500
N35700
N35750   X98.7300  Y21.8900
N35800
N35850   Y1.5800
N35900
N35950   X77.1400
N36000
N36050   X82.8600  Y7.2900
N36100
N36150   X87.9400  Y11.7400
N36200
N36250   Y14.9100
N36300
N36350   X91.7400  Y18.7200
N36400
N36450   X95.5500
N36500
N36550   X98.7300  Y21.8900
N36600   X70.1600  Y1.5800
N36650
N36700   X77.1400
N36750
N36800   X92.3800  Y16.8200
N36850 G40
N36900   X63.8000  Y95.5600
N36950
N37000   Y7.9200
N37050   X68.5200  Y10.4600
N37100
N37150    I-0.9000  J0.0000
N37200   Y13.0000
N37250
N37300    I-0.9000  J0.0000
N37350   X71.4200  Y11.1000
N37400
N37450
N37500   X69.5200  Y13.0000
N37550   X70.1600
N37600
N37650   X67.6200
N37700
N37750   X70.1600
N37800   X68.5200  Y15.5400
N37850
N37900    I-0.9000  J0.0000
N37950   Y18.0800
N38000
N38050    I-0.9000  J0.0000
N38100   X72.3300  Y18.0500
N38150
N38200    I-0.9000  J0.0000
N38250   X75.9400  Y15.9800
N38300
N38350    I-0.9000  J0.0000
N38400   X77.1400  Y18.0800
N38450
N38500   Y15.5400
N38550
N38600   X67.6200
N38650
N38700   X68.8900
N38750
N38800   X71.4200  Y18.0800
N38850
N38900   X77.1400
N38950
N39000   Y15.5400
N39050
N39100   X67.6200
N39150
N39200   X68.8900
N39250
N39300   X71.4200  Y18.0800
N39350
N39400   X77.1400
N39450   X83.1200
N39500
N39550    I-0.9000  J0.0000
N39600   Y23.1600
N39650
N39700    I-0.9000  J0.0000
N39750   X87.9400  Y25.7000
N39800
N39850   X88.5700  Y23.1600
N39900
N39950   X82.8600  Y17.4500
N40000
N40050   X80.9500
N40100
N40150   Y21.9000
N40200
N40250   X84.7600  Y25.7000
N40300
N40350   X87.9400
N40400
N40450   X88.5700  Y23.1600
N40500
N40550   X82.8600  Y17.4500
N40600
N40650   X80.9500
N40700
N40750   Y21.9000
N40800
N40850   X84.7600  Y25.7000
N40900
N40950   X87.9400
N41000   X94.3800  Y24.4400
N41050
N41100    I-2.0000  J0.0000
N41150   X94.9200  Y25.7000
N41200
N41250   Y23.1600
N41300
N41350   X87.9400
N41400
N41450   Y25.7000
N41500
N41550   X94.9200
N41600
N41650   Y23.1600
N41700
N41750   X87.9400
N41800
N41850   Y25.7000
N41900
N41950   X94.9200
N42000   X94.3800  Y32.0600
N42050
N42100    I-2.0000  J0.0000
N42150   X94.2900  Y33.3200
N42200
N42250   Y30.7800
N42300
N42350   X89.8400
N42400
N42450   Y33.3200
N42500
N42550   X94.2900
N42600
N42650   Y30.7800
N42700
N42750   X89.8400
N42800
N42850   Y33.3200
N42900
N42950   X94.2900
N43000   X94.3800  Y39.6800
N43050
N43100    I-2.0000  J0.0000
N43150   X94.2900  Y40.9400
N43200
N43250   Y38.4000
N43300
N43350   X89.8400
N43400
N43450   Y40.9400
N43500
N43550   X94.2900
N43600
N43650   Y38.4000
N43700
N43750   X89.8400
N43800
N43850   Y40.9400
N43900
N43950   X94.2900
N44000   X94.3800  Y46.6600
N44050
N44100    I-2.0000  J0.0000
N44150   X94.2800  Y47.9200
N44200
N44250   Y45.3800
N44300
N44350   X88.5700
N44400
N44450   Y47.9200
N44500
N44550   X94.2800
N44600
N44650   Y45.3800
N44700
N44750   X88.5700
N44800
N44850   Y47.9200
N44900
N44950   X94.2800
N45000   X94.3800  Y54.9200
N45050
N45100    I-2.0000  J0.0000
N45150   X94.2800  Y56.1800
N45200
N45250   Y53.6400
N45300
N45350   X87.3000
N45400
N45450   X84.1200  Y50.4700
N45500
N45550   Y45.3900
N45600
N45650   X82.2200  Y43.4800
N45700
N45750   Y50.4700
N45800
N45850   X87.9400  Y56.1800
N45900
N45950   X94.2800
N46000
N46050   Y53.6400
N46100
N46150   X87.3000
N46200
N46250   X84.1200  Y50.4700
N46300
N46350   Y45.3900
N46400
N46450   X82.2200  Y43.4800
N46500
N46550   Y50.4700
N46600
N46650   X87.9400  Y56.1800
N46700
N46750   X94.2800
N46800   X94.3800  Y62.5400
N46850
N46900    I-2.0000  J0.0000
N46950   X94.2800  Y63.8000
N47000
N47050   Y61.2600
N47100
N47150   X82.2200
N47200
N47250   Y63.8000
N47300
N47350   X94.2800
N47400
N47450   Y61.2600
N47500
N47550   X82.2200
N47600
N47650   Y63.8000
N47700
N47750   X94.2800
N47800   X94.3800  Y70.1600
N47850
N47900    I-2.0000  J0.0000
N47950   X94.2800  Y71.4200
N48000
N48050
N48100   Y68.8800
N48150
N48200   X82.2200
N48250
N48300   Y75.8700
N48350
N48400   X82.8600
N48450
N48500   X87.3000  Y71.4200
N48550
N48600   X94.2800
N48650
N48700   Y68.8800
N48750
N48800   X82.2200
N48850
N48900   Y75.8700
N48950
N49000   X82.8600
N49050
N49100   X87.3000  Y71.4200
N49150
N49200   X94.2800
N49250   X82.8600  Y75.8700
N49300
N49350   X88.5700  Y70.1600
N49400 G40
N49450
N49500   X92.3800
N49550   X94.3800  Y77.7800
N49600
N49650    I-2.0000  J0.0000
N49700   X94.2800  Y79.0400
N49750
N49800   Y76.5000
N49850
N49900   X87.9400
N49950
N50000   X85.4000  Y79.0400
N50050
N50100   X82.2200
N50150
N50200   Y85.4000
N50250
N50300   X83.4900
N50350
N50400   X89.8400  Y79.0400
N50450
N50500   X94.2800
N50550
N50600   Y76.5000
N50650
N50700   X87.9400
N50750
N50800   X85.4000  Y79.0400
N50850
N50900   X82.2200
N50950
N51000   Y85.4000
N51050
N51100   X83.4900
N51150
N51200   X89.8400  Y79.0400
N51250
N51300   X94.2800
N51350   X94.3800  Y85.4000
N51400
N51450    I-2.0000  J0.0000
N51500   X98.7300  Y89.8400
N51550
N51600   X96.8200  Y91.7400
N51650
N51700   X89.8400
N51750
N51800   X87.9400  Y93.6500
N51850
N51900   X79.0400
N51950
N52000   X75.2400  Y97.4600
N52050
N52100   Y98.7300
N52150
N52200   X98.7300
N52250
N52300   Y89.8400
N52350
N52400   X96.8200  Y91.7400
N52450
N52500   X89.8400
N52550
N52600   X87.9400  Y93.6500
N52650
N52700   X79.0400
N52750
N52800   X75.2400  Y97.4600
N52850
N52900   Y98.7300
N52950
N53000   X98.7300
N53050
N53100   Y89.8400
N53150   X94.8800  Y93.0200
N53200
N53250    I-2.5000  J0.0000
N53300   X85.4000  Y96.0000
N53350
N53400    I-4.0000  J0.0000
N53450   X79.0400  Y94.9200
N53500
N53550   X66.9800
N53600
N53650   X63.8000  Y91.7400
N53700
N53750   Y97.4600
N53800
N53850   X65.0800  Y98.7300
N53900
N53950   X79.6800
N54000
N54050   X79.0400  Y94.9200
N54100
N54150   X66.9800
N54200
N54250   X63.8000  Y91.7400
N54300
N54350   Y97.4600
N54400
N54450   X65.0800  Y98.7300
N54500
N54550   X79.6800
N54600
N54650   X79.0400  Y94.9200
N54700   X71.7000  Y89.1700
N54750
N54800    I-0.9000  J0.0000
N54850   X68.5200  Y89.2000
N54900
N54950    I-0.9000  J0.0000
N55000   Y86.6600
N55050
N55100    I-0.9000  J0.0000
N55150   X67.6200
N55200
N55250   X68.8800
N55300
N55350   X70.7900  Y88.5700
N55400
N55450   Y89.2000
N55500
N55550   X72.7000
N55600
N55650   X74.6000  Y87.3000
N55700
N55750   Y85.4000
N55800
N55850   X71.4200
N55900
N55950   X70.1500  Y86.6600
N56000
N56050   X67.6200
N56100
N56150   X68.8800
N56200
N56250   X70.7900  Y88.5700
N56300
N56350   Y89.2000
N56400
N56450   X72.7000
N56500
N56550   X74.6000  Y87.3000
N56600
N56650   Y85.4000
N56700
N56750   X71.4200
N56800
N56850   X70.1500  Y86.6600
N56900
N56950   X67.6200
N57000   X68.5200  Y84.1200
N57050
N57100    I-0.9000  J0.0000
N57150   Y81.5800
N57200
N57250    I-0.9000  J0.0000
N57300   X71.7000  Y79.0100
N57350
N57400    I-0.9000  J0.0000
N57450   X74.2300  Y79.0500
N57500
N57550    I-0.9000  J0.0000
N57600   X79.0400  Y77.1400
N57650
N57700
N57750   Y81.5800
N57800
N57850   X78.4100  Y82.2200
N57900
N57950   X74.6000
N58000
N58050   Y79.0400
N58100
N58150   X77.1400
N58200
N58250   X79.0400  Y77.1400
N58300
N58350   Y81.5800
N58400
N58450   X78.4100  Y82.2200
N58500
N58550   X74.6000
N58600
N58650   Y79.0400
N58700
N58750   X77.1400
N58800
N58850   X79.0400  Y77.1400
N58900   X74.6000  Y82.2200
N58950
N59000   Y79.0400
N59050
N59100   X70.1600
N59150
N59200   Y82.8600
N59250
N59300   X68.8800  Y84.1200
N59350
N59400   X67.6200
N59450
N59500   X68.8800
N59550
N59600   X70.7900  Y82.2200
N59650
N59700   X74.6000
N59750
N59800   Y79.0400
N59850
N59900   X70.1600
N59950
N60000   Y82.8600
N60050
N60100   X68.8800  Y84.1200
N60150
N60200   X67.6200
N60250
N60300   X68.8800
N60350
N60400   X70.7900  Y82.2200
N60450 G40
N60500
N60550   X74.6000
N60600   X74.2300  Y85.4000
N60650
N60700    I-0.9000  J0.0000
N60750   X79.0400  Y33.9600
N60800
N60850
N60900   X77.7800  Y32.6900
N60950
N61000   X68.8800
N61050
N61100   X67.6200  Y33.9600
N61150 G40
N61200   X79.0400
N61250
N61300   Y81.5800
N61350   X92.3800  Y77.7800
N61400
N61450
N61500   X91.1100
N61550
N61600   X83.4900  Y85.4000
N61650 G40
N61700
N61750   X82.8600
N61800   X84.3900
N61850
N61900    I-0.9000  J0.0000
N61950   Y79.0400
N62000
N62050    I-0.9000  J0.0000
N62100   X83.7600  Y75.8700
N62150
N62200    I-0.9000  J0.0000
N62250   Y70.7900
N62300
N62350    I-0.9000  J0.0000
N62400   X79.0400  Y67.6200
N62450
N62500   Y61.9000
N62550
N62600   X77.7800  Y63.1700
N62650
N62700   X75.8700
N62750
N62800   X73.3300  Y65.7100
N62850
N62900   X71.4200
N62950
N63000   X70.7900  Y66.3400
N63050
N63100   Y69.5200
N63150
N63200   X70.1600  Y70.1600
N63250
N63300   X69.5200  Y70.7900
N63350
N63400   X67.6200
N63450
N63500   X69.5200
N63550
N63600   X74.6000  Y65.7100
N63650
N63700   X77.1400
N63750
N63800   X79.0400  Y67.6200
N63850
N63900   Y61.9000
N63950
N64000   X77.7800  Y63.1700
N64050
N64100   X75.8700
N64150
N64200   X73.3300  Y65.7100
N64250
N64300   X71.4200
N64350
N64400   X70.7900  Y66.3400
N64450
N64500   Y69.5200
N64550
N64600   X70.1600  Y70.1600
N64650
N64700   X69.5200  Y70.7900
N64750
N64800   X67.6200
N64850
N64900   X69.5200
N64950
N65000   X74.6000  Y65.7100
N65050
N65100   X77.1400
N65150
N65200   X79.0400  Y67.6200
N65250   X76.5700  Y68.6900
N65300
N65350    I-0.9000  J0.0000
N65400   X75.8700  Y68.8800
N65450
N65500   X75.2400
N65550
N65600   X70.7900  Y73.3300
N65650
N65700   X67.6200
N65750
N65800   X68.8800
N65850
N65900   X71.4200  Y75.8700
N65950
N66000   X73.9600
N66050
N66100   X75.8700  Y73.9600
N66150
N66200   Y68.8800
N66250
N66300   X75.2400
N66350
N66400   X70.7900  Y73.3300
N66450
N66500   X67.6200
N66550
N66600   X68.8800
N66650
N66700   X71.4200  Y75.8700
N66750
N66800   X73.9600
N66850
N66900   X75.8700  Y73.9600
N66950
N67000   Y68.8800
N67050   X72.3300  Y65.6700
N67100
N67150    I-0.9000  J0.0000
N67200   Y62.5000
N67250
N67300    I-0.9000  J0.0000
N67350   X68.5200  Y62.5400
N67400
N67450    I-0.9000  J0.0000
N67500   Y60.0000
N67550
N67600    I-0.9000  J0.0000
N67650   Y57.4600
N67700
N67750    I-0.9000  J0.0000
N67800   Y54.9200
N67850
N67900    I-0.9000  J0.0000
N67950   X72.3300  Y52.3400
N68000
N68050    I-0.9000  J0.0000
N68100   Y49.1600
N68150
N68200    I-0.9000  J0.0000
N68250   X68.5200  Y49.2000
N68300
N68350    I-0.9000  J0.0000
N68400   Y46.6600
N68450
N68500    I-0.9000  J0.0000
N68550   Y44.1200
N68600
N68650    I-0.9000  J0.0000
N68700   Y41.5800
N68750
N68800    I-0.9000  J0.0000
N68850   X71.4200  Y39.0400
N68900
N68950   X79.0400  Y37.7700
N69000
N69050   Y33.9600
N69100
N69150   X77.7800  Y32.6900
N69200
N69250   X72.0600
N69300
N69350   X73.3300  Y33.9600
N69400
N69450   Y37.7700
N69500
N69550   X72.0600  Y39.0400
N69600
N69650   X71.4200
N69700
N69750   X79.0400  Y37.7700
N69800
N69850   Y33.9600
N69900
N69950   X77.7800  Y32.6900
N70000
N70050   X72.0600
N70100
N70150   X73.3300  Y33.9600
N70200
N70250   Y37.7700
N70300
N70350   X72.0600  Y39.0400
N70400
N70450   X71.4200
N70500   X72.3300  Y39.0000
N70550
N70600    I-0.9000  J0.0000
N70650   X71.0600  Y36.5000
N70700
N70750    I-0.9000  J0.0000
N70800   X68.5200
N70850
N70900    I-0.9000  J0.0000
N70950   X70.7900
N71000
N71050
N71100   X67.6200
N71150   X68.5200  Y33.9600
N71200
N71250    I-0.9000  J0.0000
N71300   X73.6000  Y32.6900
N71350
N71400    I-0.9000  J0.0000
N71450   X76.5700  Y36.9400
N71500
N71550    I-0.9000  J0.0000
N71600   X89.8400  Y38.4000
N71650
N71700
N71750   X87.3000
N71800
N71850   X86.0300  Y37.1400
N71900 G40
N71950
N72000   X79.6800
N72050   X88.5700  Y45.3900
N72100
N72150
N72200   X82.8600  Y39.6800
N72250 G40
N72300
N72350   X82.2200
N72400   X83.7600
N72450
N72500    I-0.9000  J0.0000
N72550   X89.8400  Y40.9400
N72600
N72650
N72700   X87.3000  Y38.4000
N72750   X83.7500  Y34.6000
N72800
N72850    I-0.9000  J0.0000
N72900   X83.7600  Y32.6900
N72950
N73000    I-0.9000  J0.0000
N73050   X77.4100  Y26.3400
N73100
N73150    I-0.9000  J0.0000
N73200   X82.8600  Y34.6000
N73250
N73300
N73350   Y32.6900
N73400 G40
N73450
N73500   X76.5000  Y26.3400
N73550   X74.8600
N73600
N73650    I-0.9000  J0.0000
N73700   X71.0600
N73750
N73800    I-0.9000  J0.0000
N73850   X73.9600
N73900
N73950
N74000   X70.1600
N74050   X60.9000  Y33.9600
N74100
N74150    I-0.9000  J0.0000
N74200   Y36.5000
N74250
N74300    I-0.9000  J0.0000
N74350   X58.3600
N74400
N74450    I-0.9000  J0.0000
N74500   X58.7200
N74550
N74600
N74650   X57.4600  Y35.2300
N74700   X60.0000  Y36.5000
N74750
N74800
N74850   X57.4600
N74900 G40
N74950
N75000   Y33.9600
N75050   X58.3600
N75100
N75150    I-0.9000  J0.0000
N75200   X60.0000
N75250
N75300
N75350   Y32.0600
N75400
N75450   X58.7200  Y30.7800
N75500
N75550   X54.9200
N75600 G40
N75650
N75700   X54.2800  Y31.4200
N75750   X50.4700  Y32.6900
N75800
N75850
N75900   X49.2000  Y33.9600
N75950 G40
N76000
N76050   X50.4700  Y35.2300
N76100   X48.2000  Y36.5000
N76150
N76200    I-0.9000  J0.0000
N76250   X48.1900  Y33.9600
N76300
N76350    I-0.9000  J0.0000
N76400   X50.4700
N76450
N76500
N76550   X47.3000
N76600   X45.6600  Y32.9600
N76650
N76700   Y31.1600
N76750
N76800   X43.8600
N76850
N76900   Y32.9600
N76950
N77000   X45.6600
N77050   X44.3800  Y32.0600
N77100
N77150    I-0.9000  J0.0000
N77200   X45.3900
N77250
N77300
N77350   X43.4800
N77400   X47.9300  Y29.5200
N77450
N77500
N77550   X43.4800
N77600   X44.3900
N77650
N77700    I-0.9000  J0.0000
N77750   X46.2900  Y30.4200
N77800
N77850   Y28.6200
N77900
N77950   X44.4900
N78000
N78050   Y30.4200
N78100
N78150   X46.2900
N78200   X47.5600
N78250
N78300   Y28.6200
N78350
N78400   X45.7600
N78450
N78500   Y30.4200
N78550
N78600   X47.5600
N78650   X44.3800  Y26.9700
N78700
N78750    I-0.9000  J0.0000
N78800   X44.3900  Y24.4400
N78850
N78900    I-0.9000  J0.0000
N78950   X44.3800  Y21.9000
N79000
N79050    I-0.9000  J0.0000
N79100   X43.4800  Y26.9800
N79150
N79200
N79250   Y26.3400
N79300 G40
N79350
N79400   Y21.9000
N79450   X47.3000
N79500
N79550   X46.0200
N79600
N79650   Y23.8000
N79700
N79750   Y26.9800
N79800
N79850   X47.3000
N79900
N79950   Y21.9000
N80000
N80050   X46.0200
N80100
N80150   Y23.8000
N80200
N80250   Y26.9800
N80300
N80350   X47.3000
N80400
N80450   Y21.9000
N80500   X43.4800
N80550
N80600   X47.3000
N80650   X48.2000
N80700
N80750    I-0.9000  J0.0000
N80800   X40.9400  Y32.0600
N80850
N80900   Y23.8000
N80950
N81000   X42.8500
N81050
N81100   X43.4800  Y23.1600
N81150
N81200   Y21.9000
N81250
N81300   X42.8500
N81350
N81400   X39.6800  Y25.0700
N81450
N81500   X38.4000
N81550
N81600   Y32.0600
N81650
N81700   X40.9400
N81750
N81800   Y23.8000
N81850
N81900   X42.8500
N81950
N82000   X43.4800  Y23.1600
N82050
N82100   Y21.9000
N82150
N82200   X42.8500
N82250
N82300   X39.6800  Y25.0700
N82350
N82400   X38.4000
N82450
N82500   Y32.0600
N82550
N82600   X40.9400
N82650   X44.3900  Y34.6000
N82700
N82750    I-0.9000  J0.0000
N82800   X44.3800  Y37.1400
N82850
N82900    I-0.9000  J0.0000
N82950   X43.4800  Y34.6000
N83000
N83050
N83100   Y39.6800
N83150   X50.1000  Y41.5800
N83200
N83250    I-0.9000  J0.0000
N83300   X55.1800
N83350
N83400    I-0.9000  J0.0000
N83450   X60.0000
N83500
N83550   X56.1800
N83600
N83650   X54.2800  Y43.4800
N83700
N83750   Y38.4000
N83800
N83850   Y39.0400
N83900
N83950   X56.8200  Y41.5800
N84000
N84050   X60.0000
N84100
N84150   X56.1800
N84200
N84250   X54.2800  Y43.4800
N84300
N84350   Y38.4000
N84400
N84450   Y39.0400
N84500
N84550   X56.8200  Y41.5800
N84600
N84650   X60.0000
N84700   X60.9000
N84750
N84800    I-0.9000  J0.0000
N84850   Y44.1200
N84900
N84950    I-0.9000  J0.0000
N85000   X57.4600  Y49.8400
N85050
N85100
N85150   Y45.3900
N85200
N85250   X58.7200  Y44.1200
N85300 G40
N85350
N85400   X60.0000
N85450   X60.9000  Y46.6600
N85500
N85550    I-0.9000  J0.0000
N85600   Y49.2000
N85650
N85700    I-0.9000  J0.0000
N85750   X58.3600  Y49.8400
N85800
N85850    I-0.9000  J0.0000
N85900   Y52.3800
N85950
N86000    I-0.9000  J0.0000
N86050   X60.0000  Y49.2000
N86100
N86150
N86200   Y51.1000
N86250
N86300   X58.7200  Y52.3800
N86350 G40
N86400
N86450   X57.4600
N86500   X60.0000  Y54.9200
N86550
N86600
N86650   X54.2800
N86700   Y53.6400
N86750
N86800
N86850   X55.5500  Y54.9200
N86900 G40
N86950
N87000   X54.2800  Y56.1800
N87050   X58.7200  Y57.4600
N87100
N87150
N87200   X57.4600  Y58.7200
N87250   X60.0000  Y57.4600
N87300
N87350
N87400   X57.4600
N87450 G40
N87500
N87550   Y60.0000
N87600   X58.3600
N87650
N87700    I-0.9000  J0.0000
N87750   X60.9000
N87800
N87850    I-0.9000  J0.0000
N87900   Y62.5400
N87950
N88000    I-0.9000  J0.0000
N88050   X58.3600
N88100
N88150    I-0.9000  J0.0000
N88200   X60.0000
N88250
N88300
N88350   X57.4600
N88400   X55.1800  Y65.7100
N88450
N88500    I-0.9000  J0.0000
N88550   X60.0000  Y68.2500
N88600
N88650
N88700   X54.2800
N88750   Y66.9800
N88800
N88850
N88900   X55.5500  Y68.2500
N88950 G40
N89000
N89050   X54.2800  Y69.5200
N89100   X58.7200  Y70.7900
N89150
N89200
N89250   X57.4600  Y72.0600
N89300   X60.0000  Y70.7900
N89350
N89400
N89450   X57.4600
N89500 G40
N89550
N89600   Y73.3300
N89650   X58.3600
N89700
N89750    I-0.9000  J0.0000
N89800   Y70.7900
N89850
N89900    I-0.9000  J0.0000
N89950   X60.9000
N90000
N90050    I-0.9000  J0.0000
N90100   Y73.3300
N90150
N90200    I-0.9000  J0.0000
N90250   Y75.8700
N90300
N90350    I-0.9000  J0.0000
N90400   X58.3600
N90450
N90500    I-0.9000  J0.0000
N90550   X60.0000
N90600
N90650
N90700   X57.4600
N90750   X54.2800  Y80.3200
N90800
N90850   X55.5500  Y81.5800
N90900
N90950   X60.0000
N91000   X54.2800  Y27.6100
N91050
N91100   Y80.3200
N91150   X56.4500  Y81.5800
N91200
N91250    I-0.9000  J0.0000
N91300   X58.3600  Y84.1200
N91350
N91400    I-0.9000  J0.0000
N91450   X58.7200
N91500
N91550
N91600   X57.4600  Y85.4000
N91650   X60.0000  Y84.1200
N91700
N91750
N91800   X57.4600
N91850 G40
N91900
N91950   Y86.6600
N92000   X58.3600
N92050
N92100    I-0.9000  J0.0000
N92150   X60.9000
N92200
N92250    I-0.9000  J0.0000
N92300   Y84.1200
N92350
N92400    I-0.9000  J0.0000
N92450   Y81.5800
N92500
N92550    I-0.9000  J0.0000
N92600   Y89.2000
N92650
N92700    I-0.9000  J0.0000
N92750   X98.7300  Y16.8200
N92800
N92850
N92900   Y91.7400
N92950
N93000   X93.0200  Y97.4600
N93050 G40
N93100
N93150   X63.8000
N93200   X50.4700  Y27.6100
N93250
N93300
N93350   Y11.7400
N93400
N93450   X49.2000  Y10.4600
N93500
N93550   X46.0200
N93600
N93650   X44.7600
N93700
N93750   X39.6800  Y15.5400
N93800
N93850   X36.5000  Y18.7200
N93900
N93950   X23.8000
N94000 G40
N94050   X50.4700  Y27.6100
N94100
N94150   Y87.3000
N94200   X60.0000  Y89.2000
N94250
N94300
N94350   X51.7400
N94400
N94450   X50.4700  Y87.9400
N94500
N94550   X49.2000  Y86.6600
N94600 G40
N94650
N94700   X50.4700  Y85.4000
N94750   X48.1900  Y86.6600
N94800
N94850    I-0.9000  J0.0000
N94900   X52.3800  Y89.2000
N94950
N95000
N95050   X51.7400
N95100
N95150   X49.8400  Y87.3000
N95200
N95250   Y86.6600
N95300
N95350   X47.3000
N95400
N95450   X44.1200  Y89.8400
N95500
N95550   X51.7400
N95600
N95650   X52.3800  Y89.2000
N95700
N95750   X51.7400
N95800
N95850   X49.8400  Y87.3000
N95900
N95950   Y86.6600
N96000
N96050   X47.3000
N96100
N96150   X44.1200  Y89.8400
N96200
N96250   X51.7400
N96300
N96350   X52.3800  Y89.2000
N96400   X47.3000  Y86.6600
N96450
N96500   X44.1200  Y89.8400
N96550
N96600   X38.4000
N96650 G40
N96700   X50.4700  Y86.6600
N96750
N96800   X47.3000
N96850   X43.1200  Y84.1200
N96900
N96950    I-0.9000  J0.0000
N97000   X44.3800  Y80.9500
N97050
N97100    I-0.9000  J0.0000
N97150   X44.3900  Y78.4100
N97200
N97250    I-0.9000  J0.0000
N97300   X42.2200  Y84.1200
N97350
N97400
N97450   X43.4800  Y82.8600
N97500 G40
N97550
N97600   Y78.4100
N97650   X44.3900  Y75.8700
N97700
N97750    I-0.9000  J0.0000
N97800   Y73.3300
N97850
N97900    I-0.9000  J0.0000
N97950   Y70.7900
N98000
N98050    I-0.9000  J0.0000
N98100   Y68.2500
N98150
N98200    I-0.9000  J0.0000
N98250   Y65.7100
N98300
N98350    I-0.9000  J0.0000
N98400   X44.7600  Y46.0200
N98450
N98500
N98550   Y44.7600
N98600
N98650   X37.1400
N98700
N98750   X32.6900  Y40.3100
N98800
N98850   X32.0600
N98900
N98950   Y42.8500
N99000
N99050   X30.1500  Y44.7600
N99100
N99150   Y46.6600
N99200
N99250   X37.7700
N99300
N99350   X39.6800  Y44.7600
N99400
N99450   X43.4800
N99500
N99550   X44.7600  Y46.0200
N99600
N99650   Y44.7600
N99700
N99750   X37.1400
N99800
N99850   X32.6900  Y40.3100
N99900
N99950   X32.0600
N100000
N100050   Y42.8500
N100100
N100150   X30.1500  Y44.7600
N100200
N100250   Y46.6600
N100300
N100350   X37.7700
N100400
N100450   X39.6800  Y44.7600
N100500
N100550   X43.4800
N100600
N100650   X44.7600  Y46.0200
N100700   X35.8600  Y44.7600
N100750
N100800   X44.7600
N100850 G40
N100900
N100950   Y65.7100
N101000   X47.3000
N101050
N101100   X43.4800
N101150   X47.3000
N101200
N101250   Y62.5400
N101300
N101350   X45.3900
N101400
N101450   X44.7600  Y61.9000
N101500
N101550   Y64.4400
N101600
N101650   X43.4800  Y65.7100
N101700
N101750   X47.3000
N101800
N101850   Y62.5400
N101900
N101950   X45.3900
N102000
N102050   X44.7600  Y61.9000
N102100
N102150   Y64.4400
N102200
N102250   X43.4800  Y65.7100
N102300
N102350   X47.3000
N102400   X48.2000
N102450
N102500    I-0.9000  J0.0000
N102550   X51.3700  Y62.5400
N102600
N102650    I-0.9000  J0.0000
N102700   X50.4700  Y58.7200
N102750
N102800
N102850   X49.2000  Y60.0000
N102900 G40
N102950
N103000   X50.4700  Y61.2600
N103050   X48.1900  Y60.0000
N103100
N103150    I-0.9000  J0.0000
N103200   X50.4700
N103250
N103300
N103350   X47.3000
N103400   X44.7600  Y58.0900
N103450
N103500   X47.3000  Y55.5500
N103550
N103600   Y53.6400
N103650
N103700   X44.7600  Y51.1000
N103750
N103800   Y58.0900
N103850
N103900   X47.3000  Y55.5500
N103950
N104000   Y53.6400
N104050
N104100   X44.7600  Y51.1000
N104150
N104200   Y58.0900
N104250   X43.1200  Y57.4600
N104300
N104350    I-0.9000  J0.0000
N104400   X35.8600  Y78.4100
N104450
N104500
N104550   Y75.8700
N104600
N104650   X37.1400
N104700
N104750   X38.4000  Y74.6000
N104800
N104850   Y73.3300
N104900
N104950   X40.9400  Y70.7900
N105000
N105050   Y64.4400
N105100
N105150   X42.2200  Y63.1700
N105200 G40
N105250
N105300   Y57.4600
N105350   X44.7600  Y55.5500
N105400
N105450   Y48.5600
N105500
N105550   X42.8500  Y50.4700
N105600
N105650   Y53.6400
N105700
N105750   X44.7600  Y55.5500
N105800
N105850   Y48.5600
N105900
N105950   X42.8500  Y50.4700
N106000
N106050   Y53.6400
N106100
N106150   X44.7600  Y55.5500
N106200   X50.4700  Y49.8400
N106250
N106300
N106350   X47.3000
N106400   X48.1900
N106450
N106500    I-0.9000  J0.0000
N106550   X50.4700  Y48.5600
N106600
N106650
N106700   X49.2000  Y49.8400
N106750 G40
N106800
N106850   X50.4700  Y51.1000
N106900   X51.3700  Y52.3800
N106950
N107000    I-0.9000  J0.0000
N107050   X58.3600  Y57.4600
N107100
N107150    I-0.9000  J0.0000
N107200   X60.9000
N107250
N107300    I-0.9000  J0.0000
N107350   Y54.9200
N107400
N107450    I-0.9000  J0.0000
N107500   X58.3600  Y47.3000
N107550
N107600    I-0.9000  J0.0000
N107650   X43.1200
N107700
N107750    I-0.9000  J0.0000
N107800   X35.8600  Y68.2500
N107850
N107900
N107950   Y65.7100
N108000
N108050   X39.6800  Y61.9000
N108100
N108150   Y58.0900
N108200
N108250   Y48.5600
N108300
N108350   X40.9400  Y47.3000
N108400 G40
N108450
N108500   X42.2200
N108550   X32.9600  Y51.7400
N108600
N108650    I-0.9000  J0.0000
N108700   X30.4200
N108750
N108800    I-0.9000  J0.0000
N108850   X27.8800
N108900
N108950    I-0.9000  J0.0000
N109000   X26.9800
N109050
N109100   Y46.0200
N109150
N109200   X24.4300
N109250
N109300   X24.4400  Y47.9300
N109350
N109400   Y51.7400
N109450
N109500   X26.9800
N109550
N109600   Y46.0200
N109650
N109700   X24.4300
N109750
N109800   X24.4400  Y47.9300
N109850
N109900   Y51.7400
N109950
N110000   X26.9800
N110050   X25.3400
N110100
N110150    I-0.9000  J0.0000
N110200   X22.8000
N110250
N110300    I-0.9000  J0.0000
N110350   X29.5200
N110400
N110450
N110500   Y53.0100
N110550
N110600   X28.2400  Y54.2800
N110650
N110700   X23.1600
N110750
N110800   X21.9000  Y53.0100
N110850 G40
N110900
N110950   Y51.7400
N111000   X20.2600
N111050
N111100    I-0.9000  J0.0000
N111150   X19.3600  Y54.2800
N111200
N111250   Y60.6300
N111300
N111350   X21.9000  Y58.0900
N111400
N111450   Y56.8200
N111500
N111550   X19.3600  Y54.2800
N111600
N111650   Y60.6300
N111700
N111750   X21.9000  Y58.0900
N111800
N111850   Y56.8200
N111900
N111950   X19.3600  Y54.2800
N112000   X17.7200  Y56.8200
N112050
N112100    I-0.9000  J0.0000
N112150   Y59.3600
N112200
N112250    I-0.9000  J0.0000
N112300   X20.2600  Y63.1700
N112350
N112400    I-0.9000  J0.0000
N112450   X29.5200  Y65.7100
N112500
N112550
N112600   X23.1600
N112650
N112700   X21.9000  Y64.4400
N112750 G40
N112800
N112850   Y63.1700
N112900   X22.8000
N112950
N113000    I-0.9000  J0.0000
N113050   X25.3400
N113100
N113150    I-0.9000  J0.0000
N113200   X26.9800
N113250
N113300   X26.3400  Y62.5400
N113350
N113400   Y60.0000
N113450
N113500   X26.9800  Y59.3600
N113550
N113600   Y56.8200
N113650
N113700   X24.4400
N113750
N113800   Y61.9000
N113850
N113900   Y63.1700
N113950
N114000   X26.9800
N114050
N114100   X26.3400  Y62.5400
N114150
N114200   Y60.0000
N114250
N114300   X26.9800  Y59.3600
N114350
N114400   Y56.8200
N114450
N114500   X24.4400
N114550
N114600   Y61.9000
N114650
N114700   Y63.1700
N114750
N114800   X26.9800
N114850   X28.0900  Y62.9500
N114900
N114950    I-0.9000  J0.0000
N115000   X35.8600  Y73.3300
N115050
N115100
N115150   X32.6900
N115200
N115250   X29.5200  Y70.1600
N115300
N115350   Y61.9000
N115400 G40
N115450
N115500   X28.8800  Y61.2600
N115550   X29.8900  Y61.1600
N115600
N115650    I-0.9000  J0.0000
N115700   X32.0600  Y51.7400
N115750
N115800
N115850   X33.3200
N115900
N115950   Y60.6300
N116000
N116050   X32.0600  Y61.9000
N116100
N116150   Y60.6300
N116200
N116250   X30.7800  Y59.3600
N116300
N116350   Y56.1800
N116400
N116450   X32.0600  Y54.9200
N116500
N116550   Y51.7400
N116600
N116650   X33.3200
N116700
N116750   Y60.6300
N116800
N116850   X32.0600  Y61.9000
N116900
N116950   Y60.6300
N117000
N117050   X30.7800  Y59.3600
N117100
N117150   Y56.1800
N117200
N117250   X32.0600  Y54.9200
N117300
N117350   Y51.7400
N117400   X30.7800  Y59.3600
N117450
N117500   X32.0600  Y60.6300
N117550 G40
N117600
N117650   Y61.9000
N117700   X32.9600
N117750
N117800    I-0.9000  J0.0000
N117850   X31.6800  Y59.3600
N117900
N117950    I-0.9000  J0.0000
N118000   X27.8800
N118050
N118100    I-0.9000  J0.0000
N118150   X29.5200  Y66.9800
N118200
N118250
N118300   X28.2400  Y65.7100
N118350 G40
N118400
N118450   X29.5200  Y64.4400
N118500   X36.7700  Y65.7100
N118550
N118600    I-0.9000  J0.0000
N118650   Y68.2500
N118700
N118750    I-0.9000  J0.0000
N118800   Y70.7900
N118850
N118900    I-0.9000  J0.0000
N118950   X29.5200  Y52.3800
N119000
N119050
N119100   Y51.1000
N119150
N119200   X31.4200  Y49.2000
N119250
N119300   X34.6000
N119350
N119400   X35.8600  Y50.4700
N119450
N119500   Y61.9000
N119550
N119600   X33.3200  Y64.4400
N119650
N119700   Y69.5200
N119750
N119800   X34.6000  Y70.7900
N119850 G40
N119900
N119950   X35.8600
N120000   X36.7700  Y73.3300
N120050
N120100    I-0.9000  J0.0000
N120150   Y75.8700
N120200
N120250    I-0.9000  J0.0000
N120300   Y78.4100
N120350
N120400    I-0.9000  J0.0000
N120450   Y80.9500
N120500
N120550    I-0.9000  J0.0000
N120600   X38.4000  Y80.3200
N120650
N120700
N120750   X37.7700  Y80.9500
N120800
N120850   X35.8600
N120900   X32.0600  Y75.8700
N120950
N121000   Y79.6800
N121050
N121100   X33.3200  Y80.9500
N121150 G40
N121200
N121250   X35.8600
N121300   X39.3000  Y80.3200
N121350
N121400    I-0.9000  J0.0000
N121450   X32.9600  Y78.4100
N121500
N121550    I-0.9000  J0.0000
N121600   Y75.8700
N121650
N121700    I-0.9000  J0.0000
N121750   X30.4200  Y78.4100
N121800
N121850    I-0.9000  J0.0000
N121900   X27.8800
N121950
N122000    I-0.9000  J0.0000
N122050   X26.9800
N122100
N122150   Y68.8800
N122200
N122250   X26.3400  Y68.2500
N122300
N122350   X24.4400
N122400
N122450   Y73.9600
N122500
N122550   Y76.5000
N122600
N122650   X26.3400  Y78.4100
N122700
N122750   X26.9800
N122800
N122850   Y68.8800
N122900
N122950   X26.3400  Y68.2500
N123000
N123050   X24.4400
N123100
N123150   Y73.9600
N123200
N123250   Y76.5000
N123300
N123350   X26.3400  Y78.4100
N123400
N123450   X26.9800
N123500   X25.3400  Y76.5000
N123550
N123600    I-0.9000  J0.0000
N123650   X22.8000  Y76.5100
N123700
N123750    I-0.9000  J0.0000
N123800   X43.4800  Y73.3300
N123850
N123900
N123950   X42.2200
N124000
N124050   X40.9400  Y74.6000
N124100
N124150   Y81.5800
N124200
N124250   X39.0400  Y83.4900
N124300
N124350   X35.2300
N124400
N124450   X32.0600
N124500
N124550   X29.5200  Y80.9500
N124600
N124650   Y78.4100
N124700   Y80.9500
N124750
N124800   X25.0700
N124850
N124900   X21.9000  Y77.7800
N124950 G40
N125000
N125050   Y76.5000
N125100   X20.2600
N125150
N125200    I-0.9000  J0.0000
N125250   X19.3600  Y79.0400
N125300
N125350   Y84.7600
N125400
N125450   X21.9000  Y82.2200
N125500
N125550   Y81.5800
N125600
N125650   X19.3600  Y79.0400
N125700
N125750   Y84.7600
N125800
N125850   X21.9000  Y82.2200
N125900
N125950   Y81.5800
N126000
N126050   X19.3600  Y79.0400
N126100   X17.7200  Y81.5800
N126150
N126200    I-0.9000  J0.0000
N126250   Y84.1200
N126300
N126350    I-0.9000  J0.0000
N126400   X43.4800  Y7.9200
N126450
N126500
N126550   X42.8500
N126600
N126650   X27.6200
N126700
N126750   X20.6200  Y14.9100
N126800
N126850   X12.3700
N126900
N126950   X11.1000  Y16.1800
N127000
N127050   X17.4500
N127100
N127150   X19.3600  Y18.0800
N127200
N127250   X21.2600  Y16.1800
N127300
N127350   X35.2300
N127400
N127450   X43.4800  Y7.9200
N127500
N127550   X42.8500
N127600
N127650   X27.6200
N127700
N127750   X20.6200  Y14.9100
N127800
N127850   X12.3700
N127900
N127950   X11.1000  Y16.1800
N128000
N128050   X17.4500
N128100
N128150   X19.3600  Y18.0800
N128200
N128250   X21.2600  Y16.1800
N128300
N128350   X35.2300
N128400
N128450   X43.4800  Y7.9200
N128500   X19.3600  Y19.9900
N128550
N128600   Y16.8200
N128650
N128700   X17.4500  Y14.9100
N128750
N128800   X12.3700
N128850
N128900   X11.1000  Y16.1800
N128950
N129000   X7.2900
N129050   X19.3600  Y19.9900
N129100
N129150   Y21.2600
N129200 G40
N129250
N129300   Y87.3000
N129350   X20.2600
N129400
N129450    I-0.9000  J0.0000
N129500   X22.8000
N129550
N129600    I-0.9000  J0.0000
N129650   X25.3400
N129700
N129750    I-0.9000  J0.0000
N129800   X28.2400  Y85.4000
N129850
N129900   Y83.4900
N129950
N130000   X24.4300
N130050
N130100   X24.4400  Y86.0300
N130150
N130200   Y87.3000
N130250
N130300   X26.3400
N130350
N130400   X28.2400  Y85.4000
N130450
N130500   Y83.4900
N130550
N130600   X24.4300
N130650
N130700   X24.4400  Y86.0300
N130750
N130800   Y87.3000
N130850
N130900   X26.3400
N130950
N131000   X28.2400  Y85.4000
N131050   X29.3600  Y85.6100
N131100
N131150    I-0.9000  J0.0000
N131200   X27.8800  Y84.1200
N131250
N131300    I-0.9000  J0.0000
N131350   X29.5200  Y79.6800
N131400
N131450
N131500   X28.2400  Y80.9500
N131550   X22.7400  Y81.5800
N131600
N131650    I-0.9000  J0.0000
N131700   X43.4800  Y75.8700
N131750
N131800
N131850   X44.1200
N131900
N131950   X46.0200  Y77.7800
N132000
N132050   Y84.1200
N132100
N132150   X43.4800  Y86.6600
N132200
N132250   X39.0400
N132300   X29.5200  Y87.9400
N132350
N132400   X27.6100  Y89.8400
N132450
N132500   X23.1600
N132550
N132600   X21.9000  Y88.5700
N132650
N132700   Y87.3000
N132750   X39.0400  Y86.6600
N132800
N132850   X34.6000
N132900
N132950   X30.7800
N133000 G40
N133050
N133100   X29.5200  Y87.9400
N133150   X31.1600  Y87.4100
N133200
N133250    I-0.9000  J0.0000
N133300   X40.3100  Y89.8400
N133350
N133400
N133450   X32.6900
N133500 G40
N133550
N133600   X32.0600  Y89.2000
N133650   X32.9600
N133700
N133750    I-0.9000  J0.0000
N133800   X32.3600  Y94.4000
N133850
N133900
N133950   X31.4000  Y93.4600
N134000   X34.2600  Y95.9400
N134050
N134100
N134150   X34.0000  Y96.2800
N134200
N134250   X33.4600  Y96.4400
N134300
N134350   X32.9200
N134400
N134450   X32.4000  Y96.2800
N134500
N134550   X32.1200  Y95.9400
N134600
N134650   Y95.6000
N134700
N134750   X32.4000  Y95.2800
N134800
N134850   X32.9200  Y95.1000
N134900
N134950   X33.4600
N135000
N135050   X34.0000  Y94.9400
N135100
N135150   X34.2600  Y94.6000
N135200
N135250   Y94.2800
N135300
N135350   X34.0000  Y93.9400
N135400
N135450   X33.4600  Y93.7800
N135500
N135550   X32.9200
N135600
N135650   X32.4000  Y93.9400
N135700 G40
N135750
N135800   X32.1200  Y94.2800
N135850   X34.9000  Y96.3200
N135900
N135950
N136000   Y96.3000
N136050 G40
N136100
N136150   X34.2600  Y95.6800
N136200   X35.4000  Y97.1200
N136250
N136300    I1.2800  J0.0000
N136350   X36.1600  Y97.1800
N136400
N136450
N136500   X36.8200
N136550
N136600   X37.0800  Y97.2600
N136650
N136700   X37.2200  Y97.4400
N136750
N136800   Y97.6000
N136850
N136900   X37.0800  Y97.7600
N136950
N137000   X36.8200  Y97.8400
N137050
N137100   X36.1600
N137150 G40
N137200
N137250   Y96.5200
N137300   X37.2200
N137350
N137400
N137450   Y96.8400
N137500
N137550   X37.0800  Y97.0200
N137600 G40
N137650
N137700   X36.6800  Y97.1800
N137750   X30.7600  Y93.4400
N137800
N137850
N137900   Y97.9000
N137950   X32.3400  Y97.2600
N138000
N138050
N138100   Y97.9000
N138150 G40
N138200
N138250   X29.1600
N138300
N138350
N138400   Y97.2600
N138450   X31.4000  Y93.4600
N138500
N138550
N138600   X28.5400
N138650
N138700   X27.9200  Y93.1400
N138750   X28.5400  Y96.3200
N138800
N138850   Y93.4600
N138900   X29.1800  Y96.3000
N138950
N139000   X28.5400  Y96.3200
N139050 G40
N139100
N139150   X27.9200  Y96.0000
N139200   X21.9000  Y95.6000
N139250
N139300    I-4.0000  J0.0000
N139350   X9.7900  Y92.3800
N139400
N139450    I-2.5000  J0.0000
N139500   X9.2900  Y84.7600
N139550
N139600    I-2.0000  J0.0000
N139650   X16.8200
N139700
N139750
N139800   Y79.0400
N139850
N139900   X13.6400  Y75.8700
N139950   X8.5600  Y79.0400
N140000
N140050   X13.6400
N140100
N140150   X16.8200  Y82.2200
N140200
N140250   Y79.0400
N140300
N140350   X13.6400  Y75.8700
N140400
N140450   X8.5600
N140500
N140550   Y79.0400
N140600
N140650   X13.6400
N140700
N140750   X16.8200  Y82.2200
N140800
N140850   Y79.0400
N140900
N140950   X13.6400  Y75.8700
N141000
N141050   X8.5600
N141100 G40
N141150
N141200   Y79.0400
N141250   X9.2900  Y77.1400
N141300
N141350    I-2.0000  J0.0000
N141400   X4.1200  Y79.0400
N141450
N141500   X10.4600
N141550
N141600   X13.6400  Y75.8700
N141650
N141700   X4.1200
N141750
N141800   Y79.0400
N141850
N141900   X10.4600
N141950
N142000   X13.6400  Y75.8700
N142050
N142100   X4.1200
N142150
N142200   Y79.0400
N142250   Y70.7900
N142300
N142350   X10.4600
N142400
N142450   X13.0000  Y68.2500
N142500
N142550   X4.1200
N142600
N142650   Y70.7900
N142700
N142750   X10.4600
N142800
N142850   X13.0000  Y68.2500
N142900
N142950   X4.1200
N143000
N143050   Y70.7900
N143100   X9.2000
N143150
N143200   X13.0000
N143250
N143300   X15.5400  Y73.3300
N143350
N143400   X16.8200
N143450
N143500   Y68.2500
N143550
N143600   X11.1000
N143650
N143700   X9.2000  Y70.7900
N143750
N143800   X13.0000
N143850
N143900   X15.5400  Y73.3300
N143950
N144000   X16.8200
N144050
N144100   Y68.2500
N144150
N144200   X11.1000
N144250
N144300   X9.2000  Y70.7900
N144350   X9.2900  Y69.5200
N144400
N144450    I-2.0000  J0.0000
N144500   Y61.9000
N144550
N144600    I-2.0000  J0.0000
N144650   X9.8300  Y60.6300
N144700
N144750   X10.4700  Y63.1700
N144800
N144850   X16.8200
N144900
N144950   Y56.8200
N145000
N145050   X14.9100
N145100
N145150   X11.1000  Y60.6300
N145200
N145250   X9.8300
N145300
N145350   X10.4700  Y63.1700
N145400
N145450   X16.8200
N145500
N145550   Y56.8200
N145600
N145650   X14.9100
N145700
N145750   X11.1000  Y60.6300
N145800
N145850   X9.8300
N145900   X4.1200  Y63.1700
N145950
N146000   X10.4600
N146050
N146100   X13.0000  Y60.6300
N146150
N146200   X4.1200
N146250
N146300   Y63.1700
N146350
N146400   X10.4600
N146450
N146500   X13.0000  Y60.6300
N146550
N146600   X4.1200
N146650
N146700   Y63.1700
N146750   X9.2900  Y54.2800
N146800
N146850    I-2.0000  J0.0000
N146900   X22.7400  Y56.8200
N146950
N147000    I-0.9000  J0.0000
N147050   X19.3600  Y66.3400
N147100
N147150   Y73.9600
N147200
N147250   X21.9000  Y71.4200
N147300
N147350   Y68.8800
N147400
N147450   X19.3600  Y66.3400
N147500
N147550   Y73.9600
N147600
N147650   X21.9000  Y71.4200
N147700
N147750   Y68.8800
N147800
N147850   X19.3600  Y66.3400
N147900   X17.6900  Y69.7600
N147950
N148000    I-0.9000  J0.0000
N148050   X17.7200  Y72.6900
N148100
N148150    I-0.9000  J0.0000
N148200   X22.7100  Y69.7600
N148250
N148300    I-0.9000  J0.0000
N148350   X27.8800  Y72.7000
N148400
N148450    I-0.9000  J0.0000
N148500   X50.4700  Y73.3300
N148550
N148600
N148650   X47.3000
N148700   X48.1900
N148750
N148800    I-0.9000  J0.0000
N148850   X48.2000  Y70.7900
N148900
N148950    I-0.9000  J0.0000
N149000   X47.3000
N149050
N149100   X43.4800
N149150
N149200   Y68.2500
N149250
N149300   X46.0200  Y70.7900
N149350   X47.3000
N149400
N149450   Y68.2500
N149500
N149550   X43.4800
N149600
N149650   Y70.7900
N149700
N149750   X47.3000
N149800
N149850   Y68.2500
N149900
N149950   X43.4800
N150000
N150050   Y70.7900
N150100
N150150   X47.3000
N150200   X50.4700  Y72.0600
N150250
N150300
N150350   X49.2000  Y73.3300
N150400 G40
N150450
N150500   X50.4700  Y74.6000
N150550   X51.3700  Y75.8700
N150600
N150650    I-0.9000  J0.0000
N150700   Y81.5800
N150750
N150800    I-0.9000  J0.0000
N150850   X39.3000  Y89.8400
N150900
N150950    I-0.9000  J0.0000
N151000   X60.9000  Y68.2500
N151050
N151100    I-0.9000  J0.0000
N151150   X68.5200
N151200
N151250    I-0.9000  J0.0000
N151300   Y70.7900
N151350
N151400    I-0.9000  J0.0000
N151450   Y73.3300
N151500
N151550    I-0.9000  J0.0000
N151600   Y75.8700
N151650
N151700    I-0.9000  J0.0000
N151750   X72.3300  Y75.8300
N151800
N151850    I-0.9000  J0.0000
N151900   X76.5700  Y63.6100
N151950
N152000    I-0.9000  J0.0000
N152050   X82.2200  Y61.2600
N152100
N152150   X87.3000  Y61.9000
N152200
N152250   X85.4000  Y60.0000
N152300
N152350   Y58.0900
N152400
N152450   X83.4900  Y56.1800
N152500
N152550   X82.2200
N152600
N152650   Y61.2600
N152700
N152750   X87.3000  Y61.9000
N152800
N152850   X85.4000  Y60.0000
N152900
N152950   Y58.0900
N153000
N153050   X83.4900  Y56.1800
N153100
N153150   X82.2200
N153200
N153250   Y61.2600
N153300   X92.3800  Y62.5400
N153350
N153400
N153450   X82.8600
N153500   X83.7600
N153550
N153600    I-0.9000  J0.0000
N153650   Y57.4600
N153700
N153750    I-0.9000  J0.0000
N153800   X79.0400  Y54.2800
N153850
N153900   Y48.5600
N153950
N154000   X77.7800  Y49.8400
N154050
N154100   X75.8700
N154150
N154200   X73.3300  Y52.3800
N154250
N154300   X71.4200
N154350
N154400   X70.7900  Y53.0000
N154450
N154500   Y56.1800
N154550
N154600   X70.1600  Y56.8200
N154650
N154700   X69.5200  Y57.4600
N154750
N154800   X67.6200
N154850
N154900   X69.5200
N154950
N155000   X74.6000  Y52.3800
N155050
N155100   X77.1400
N155150
N155200   X79.0400  Y54.2800
N155250
N155300   Y48.5600
N155350
N155400   X77.7800  Y49.8400
N155450
N155500   X75.8700
N155550
N155600   X73.3300  Y52.3800
N155650
N155700   X71.4200
N155750
N155800   X70.7900  Y53.0000
N155850
N155900   Y56.1800
N155950
N156000   X70.1600  Y56.8200
N156050
N156100   X69.5200  Y57.4600
N156150
N156200   X67.6200
N156250
N156300   X69.5200
N156350
N156400   X74.6000  Y52.3800
N156450
N156500   X77.1400
N156550
N156600   X79.0400  Y54.2800
N156650   X76.5700  Y55.3500
N156700
N156750    I-0.9000  J0.0000
N156800   X75.8700  Y55.5400
N156850
N156900   X75.2400
N156950
N157000   X70.7900  Y60.0000
N157050
N157100   X67.6200
N157150
N157200   X68.8800
N157250
N157300   X71.4200  Y62.5400
N157350
N157400   X72.6900
N157450
N157500   X75.8700  Y59.3600
N157550
N157600   Y55.5400
N157650
N157700   X75.2400
N157750
N157800   X70.7900  Y60.0000
N157850
N157900   X67.6200
N157950
N158000   X68.8800
N158050
N158100   X71.4200  Y62.5400
N158150
N158200   X72.6900
N158250
N158300   X75.8700  Y59.3600
N158350
N158400   Y55.5400
N158450   X76.5700  Y50.2700
N158500
N158550    I-0.9000  J0.0000
N158600   X92.3800  Y54.9200
N158650
N158700
N158750   X86.6600
N158800
N158850   X82.8600  Y51.1000
N158900 G40
N158950
N159000   Y49.2000
N159050   X83.7600
N159100
N159150    I-0.9000  J0.0000
N159200   Y44.1200
N159250
N159300    I-0.9000  J0.0000
N159350   X79.0400  Y35.2300
N159400
N159450
N159500   X80.9500  Y37.1400
N159550
N159600   X79.0400  Y39.0400
N159650   Y40.9400
N159700
N159750   Y35.2200
N159800
N159850   X77.7800  Y36.5000
N159900
N159950   X75.8700
N160000
N160050   X73.3300  Y39.0400
N160100
N160150   X71.4200
N160200
N160250   X70.7900  Y39.6600
N160300
N160350   Y42.8400
N160400
N160450   X70.1600  Y43.4800
N160500
N160550   X69.5200  Y44.1200
N160600
N160650   X67.6200
N160700
N160750   X69.5200
N160800
N160850   X74.6000  Y39.0400
N160900
N160950   X77.1400
N161000
N161050   X79.0400  Y40.9400
N161100
N161150   Y35.2200
N161200
N161250   X77.7800  Y36.5000
N161300
N161350   X75.8700
N161400
N161450   X73.3300  Y39.0400
N161500
N161550   X71.4200
N161600
N161650   X70.7900  Y39.6600
N161700
N161750   Y42.8400
N161800
N161850   X70.1600  Y43.4800
N161900
N161950   X69.5200  Y44.1200
N162000
N162050   X67.6200
N162100
N162150   X69.5200
N162200
N162250   X74.6000  Y39.0400
N162300
N162350   X77.1400
N162400 G40
N162450
N162500   X79.0400  Y40.9400
N162550   X76.5700  Y42.0200
N162600
N162650    I-0.9000  J0.0000
N162700   X75.8700  Y42.2000
N162750
N162800   X75.2400
N162850
N162900   X70.7900  Y46.6600
N162950
N163000   X67.6200
N163050
N163100   X68.8800
N163150
N163200   X71.4200  Y49.2000
N163250
N163300   X72.6900
N163350
N163400   X75.8700  Y46.0200
N163450
N163500   Y42.2000
N163550
N163600   X75.2400
N163650
N163700   X70.7900  Y46.6600
N163750
N163800   X67.6200
N163850
N163900   X68.8800
N163950
N164000   X71.4200  Y49.2000
N164050
N164100   X72.6900
N164150
N164200   X75.8700  Y46.0200
N164250
N164300   Y42.2000
N164350   X75.9400  Y10.9000
N164400
N164450    I-0.9000  J0.0000
N164500   X72.3300  Y7.8900
N164550
N164600    I-0.9000  J0.0000
N164650   X85.4000  Y4.0000
N164700
N164750    I-4.0000  J0.0000
N164800   X94.8800  Y9.2000
N164850
N164900    I-2.5000  J0.0000
N164950   X94.3800  Y16.8200
N165000
N165050    I-2.0000  J0.0000
N165100   X55.5500  Y10.4600
N165150
N165200
N165250   X54.2800  Y9.2000
N165300   Y11.1000
N165350
N165400
N165450   X51.1000  Y7.9200
N165500   X27.8800  Y40.3100
N165550
N165600    I-0.9000  J0.0000
N165650   X26.9800
N165700
N165750   Y33.3200
N165800
N165850   X24.4400
N165900
N165950   Y39.0400
N166000
N166050   X25.7000  Y40.3100
N166100
N166150   X26.9800
N166200
N166250   Y33.3200
N166300
N166350   X24.4400
N166400
N166450   Y39.0400
N166500
N166550   X25.7000  Y40.3100
N166600
N166650   X26.9800
N166700   X22.7100  Y45.0000
N166750
N166800    I-0.9000  J0.0000
N166850   X27.8800  Y47.9300
N166900
N166950    I-0.9000  J0.0000
N167000

